assets/icons/qvision/apps.svg

<svg xmlns="http://www.w3.org/2000/svg" height="24" viewBox="0 0 24 24" width="24"><path d="M0 0h24v24H0z" fill="none"/><path d="M4 8h4V4H4v4zm6 12h4v-4h-4v4zm-6 0h4v-4H4v4zm0-6h4v-4H4v4zm6 0h4v-4h-4v4zm6-10v4h4V4h-4zm-6 4h4V4h-4v4zm6 6h4v-4h-4v4zm0 6h4v-4h-4v4z"/></svg>

<svg width="24" height="24" viewBox="0 0 24 24" fill="none" xmlns="http://www.w3.org/2000/svg">
<g clip-path="url(#clip0_147_5709)">
<path d="M4 8H8V4H4V8ZM10 20H14V16H10V20ZM4 20H8V16H4V20ZM4 14H8V10H4V14ZM10 14H14V10H10V14ZM16 4V8H20V4H16ZM10 8H14V4H10V8ZM16 14H20V10H16V14ZM16 20H20V16H16V20Z" fill="#323232"/>
</g>
<defs>
<clipPath id="clip0_147_5709">
<rect width="24" height="24" fill="white"/>
</clipPath>
</defs>
</svg>
